svg/furkot/mapbox-maki/pharmacy.svg

<svg viewBox="0 0 512 512" xmlns="http://www.w3.org/2000/svg"><path d="m329.037 147.328 39.021-56.16c2.183.167 4.379.167 6.563 0 25.178-.015 45.573-20.433 45.563-45.607-.015-25.176-20.433-45.576-45.609-45.561-25.175.015-45.574 20.432-45.56 45.606 0 .477.007.955.022 1.436v3.647l-91.168 96.639zm91.168 72.935v-36.468h-328.205v36.468l54.7 127.635-54.7 127.635v36.467h328.205v-36.467l-36.468-127.635zm-72.933 145.869h-72.935v72.933h-36.468v-72.933h-72.934v-36.467h72.934v-72.935h36.468v72.935h72.935z"/></svg>

<svg viewBox="0 0 512 512" xmlns="http://www.w3.org/2000/svg"><path d="M 329.037 147.328 L 368.058 91.168 C 370.241 91.335 372.437 91.335 374.621 91.168 C 399.799 91.153 420.194 70.735 420.184 45.561 C 420.169 20.385 399.751 -0.015 374.575 0 C 349.4 0.015 329.001 20.432 329.015 45.606 C 329.015 46.083 329.022 46.561 329.037 47.042 C 329.037 47.042 329.037 49.595 329.037 50.689 L 237.869 147.328 L 329.037 147.328 Z M 420.205 220.263 L 420.205 183.795 L 92 183.795 L 92 220.263 L 146.7 347.898 L 92 475.533 L 92 512 L 420.205 512 L 420.205 475.533 L 383.737 347.898 L 420.205 220.263 Z M 347.272 366.132 L 274.337 366.132 L 274.337 439.065 L 237.869 439.065 L 237.869 366.132 L 164.935 366.132 L 164.935 329.665 L 237.869 329.665 L 237.869 256.73 L 274.337 256.73 L 274.337 329.665 L 347.272 329.665 L 347.272 366.132 Z"/></svg>
